img/shop-ruf.svg

<svg width="390" height="112" viewBox="0 0 390 112" fill="none" xmlns="http://www.w3.org/2000/svg">
<g style="mix-blend-mode:multiply">
<path d="M340.954 33.3508H49.0464L0 86.2041C0 99.9829 12.48 111.155 27.8564 111.155C43.2328 111.155 55.7154 99.9829 55.7154 86.2041C55.7154 99.9829 68.1954 111.155 83.5718 111.155C98.9482 111.155 111.428 99.9829 111.428 86.2041C111.428 99.9829 123.908 111.155 139.285 111.155C154.661 111.155 167.144 99.9829 167.144 86.2041C167.144 99.9829 179.624 111.155 195 111.155C210.376 111.155 222.856 99.9829 222.856 86.2041C222.856 99.9829 235.336 111.155 250.713 111.155C266.089 111.155 278.572 99.9829 278.572 86.2041C278.572 99.9829 291.052 111.155 306.428 111.155C321.805 111.155 334.285 99.9829 334.285 86.2041C334.285 99.9829 346.765 111.155 362.144 111.155C377.523 111.155 390 99.9829 390 86.2041L340.954 33.3508Z" fill="#D9D9D9"/>
</g>
<path d="M55.7154 65.5479C55.7154 82.6412 43.2354 96.4895 27.8564 96.4895C12.4774 96.4895 0 82.6359 0 65.5479H55.7154Z" fill="#13268B"/>
<path d="M111.428 65.5479C111.428 82.6412 98.9481 96.4895 83.5717 96.4895C68.1953 96.4895 55.7153 82.6359 55.7153 65.5479H111.428Z" fill="#E9E9E9"/>
<path d="M167.144 65.5479C167.144 82.6412 154.664 96.4895 139.285 96.4895C123.906 96.4895 111.428 82.6359 111.428 65.5479H167.144Z" fill="#13268B"/>
<path d="M222.856 65.5479C222.856 82.6412 210.376 96.4895 195 96.4895C179.624 96.4895 167.144 82.6359 167.144 65.5479H222.856Z" fill="#E9E9E9"/>
<path d="M278.572 65.5479C278.572 82.6412 266.092 96.4895 250.713 96.4895C235.334 96.4895 222.856 82.6359 222.856 65.5479H278.572Z" fill="#13268B"/>
<path d="M334.285 65.5479C334.285 82.6412 321.805 96.4895 306.428 96.4895C291.052 96.4895 278.572 82.6359 278.572 65.5479H334.285Z" fill="#E9E9E9"/>
<path d="M390 65.5479C390 82.6412 377.52 96.4895 362.144 96.4895C346.767 96.4895 334.285 82.6359 334.285 65.5479H390Z" fill="#13268B"/>
<path d="M0 65.5477H55.7154L90.7478 0H49.0464L0 65.5477Z" fill="#3743AC"/>
<path d="M55.7153 65.5477H111.428L132.449 0H90.7477L55.7153 65.5477Z" fill="white"/>
<path d="M111.428 65.5477H167.144L174.151 0H132.449L111.428 65.5477Z" fill="#3743AC"/>
<path d="M167.144 65.5477H222.856L215.849 0H174.151L167.144 65.5477Z" fill="white"/>
<path d="M222.856 65.5477H278.572L257.551 0H215.852L222.856 65.5477Z" fill="#3743AC"/>
<path d="M278.572 65.5477H334.285L299.252 0H257.551L278.572 65.5477Z" fill="white"/>
<path d="M334.285 65.5477H390L340.954 0H299.252L334.285 65.5477Z" fill="#3743AC"/>
</svg>

<svg width="390" height="112" fill="none" xmlns="http://www.w3.org/2000/svg"><path d="M340.954 33.35H49.046L0 86.205c0 13.779 12.48 24.951 27.856 24.951 15.377 0 27.86-11.172 27.86-24.95 0 13.778 12.48 24.95 27.856 24.95 15.376 0 27.856-11.172 27.856-24.95 0 13.778 12.48 24.95 27.857 24.95 15.376 0 27.859-11.172 27.859-24.95 0 13.778 12.48 24.95 27.856 24.95 15.376 0 27.856-11.172 27.856-24.95 0 13.778 12.48 24.95 27.857 24.95 15.376 0 27.859-11.172 27.859-24.95 0 13.778 12.48 24.95 27.856 24.95 15.377 0 27.857-11.172 27.857-24.95 0 13.778 12.48 24.95 27.859 24.95 15.379 0 27.856-11.172 27.856-24.95L340.954 33.35Z" fill="#D9D9D9" style="mix-blend-mode:multiply"/><path d="M55.715 65.548c0 17.093-12.48 30.942-27.859 30.942C12.477 96.49 0 82.636 0 65.548h55.715Z" fill="#13268B"/><path d="M111.428 65.548c0 17.093-12.48 30.942-27.856 30.942-15.377 0-27.857-13.854-27.857-30.942h55.713Z" fill="#E9E9E9"/><path d="M167.144 65.548c0 17.093-12.48 30.942-27.859 30.942-15.379 0-27.857-13.854-27.857-30.942h55.716Z" fill="#13268B"/><path d="M222.856 65.548c0 17.093-12.48 30.942-27.856 30.942-15.376 0-27.856-13.854-27.856-30.942h55.712Z" fill="#E9E9E9"/><path d="M278.572 65.548c0 17.093-12.48 30.942-27.859 30.942-15.379 0-27.857-13.854-27.857-30.942h55.716Z" fill="#13268B"/><path d="M334.285 65.548c0 17.093-12.48 30.942-27.857 30.942-15.376 0-27.856-13.854-27.856-30.942h55.713Z" fill="#E9E9E9"/><path d="M390 65.548c0 17.093-12.48 30.942-27.856 30.942-15.377 0-27.859-13.854-27.859-30.942H390Z" fill="#13268B"/><path d="M0 65.548h55.715L90.748 0H49.046L0 65.548Z" fill="#3743AC"/><path d="M55.715 65.548h55.713L132.449 0H90.748L55.715 65.548Z" fill="#fff"/><path d="M111.428 65.548h55.716L174.151 0h-41.702l-21.021 65.548Z" fill="#3743AC"/><path d="M167.144 65.548h55.712L215.849 0h-41.698l-7.007 65.548Z" fill="#fff"/><path d="M222.856 65.548h55.716L257.551 0h-41.699l7.004 65.548Z" fill="#3743AC"/><path d="M278.572 65.548h55.713L299.252 0h-41.701l21.021 65.548Z" fill="#fff"/><path d="M334.285 65.548H390L340.954 0h-41.702l35.033 65.548Z" fill="#3743AC"/></svg>
